material/.icons/material/microsoft-windows-classic.svg

<svg xmlns="http://www.w3.org/2000/svg" viewBox="0 0 24 24"><path d="M2.67 5.3v.61l-.71.3V5.6l.71-.3m0 5.94v.62l-.71.29v-.59l.71-.32m0 6.03v.62l-.71.29v-.59l.71-.32M2.6 7.29v.55l-.57.26v-.54l.57-.27m0 1.99v.54l-.57.26v-.54l.57-.26m0 4.03v.53l-.57.26v-.54l.57-.25m0 2.02v.54l-.57.26v-.53l.57-.27m1.9-9.69v.72l-1 .37V6l1-.36m0 6.02v.71l-1 .37v-.71l1-.37m0 6.04v.71l-1 .4v-.71l1-.4m-.07-9.98v.66l-.79.3V8l.79-.28m0 2.01v.64l-.78.3V10l.78-.27m0 4.01v.64l-.78.31v-.66l.78-.29m0 2.02v.65l-.78.31v-.66l.78-.3m1.88-9.67v.85l-1.26.49v-.84l1.26-.5m0 6.02v.85l-1.26.49v-.84l1.26-.5m0 5.97v.85l-1.26.5v-.85l1.26-.5m-.06-9.9v.76l-1.06.4v-.73l1.06-.43m0 2v.75l-1.06.42v-.75l1.06-.42m0 4.01v.75l-1.06.43v-.75l1.06-.43m0 1.95v.76l-1.06.42v-.75l1.06-.43m2.04-10.1v1.12l-1.57.62V6.67l1.57-.63m0 6.02v1.13l-1.57.61v-1.12l1.57-.62m0 5.97v1.12l-1.57.62v-1.11l1.57-.63m-.09-9.9v1.03l-1.31.53V8.66l1.31-.53m0 2v1.02l-1.31.53v-1.03l1.31-.52m0 4.02v1.03l-1.31.52v-1.03l1.31-.52m0 1.95v1.02l-1.31.52v-1.01l1.31-.53m2.14-10.25v1.47L8.61 8V6.56l1.73-.71m0 6.02v1.46l-1.73.7v-1.47l1.73-.69m0 5.97v1.46l-1.73.7v-1.46l1.73-.7m-.08-9.79v1.23l-1.48.59V8.64l1.48-.59m0 1.92v1.23l-1.48.58v-1.22l1.48-.59m0 4.09v1.25l-1.48.57v-1.23l1.48-.59m0 1.94v1.25l-1.48.59V16.6l1.48-.6m2.19-10.88v2l-1.86.77V6c.64-.35 1.26-.65 1.86-.88m0 2.21v1.73l-1.86.78V8.1l1.86-.77m0 1.95v1.76l-1.86.78v-1.76l1.86-.78m0 1.97V13l-1.86.77V12l1.86-.75m0 1.96V15l-1.86.78V14l1.86-.79m0 2v1.75l-1.86.8V16l1.86-.79m0 1.96v1.87c-.73.28-1.35.55-1.86.8v-1.88l1.86-.79m9.59-11.99v14.05c-1.19-.79-2.67-1.18-4.45-1.18-1.47 0-3.12.3-4.94.91v-1.9c.97-.37 2.03-.64 3.19-.8v-4.57c-.98.12-2.04.46-3.19 1.02V11.4c.99-.46 2.06-.77 3.19-.94V6c-1.02.18-2.08.53-3.19 1V5.03C14.27 4.34 15.86 4 17.41 4c1.68 0 3.22.39 4.63 1.18m-1.89 1.23c-.76-.41-1.65-.59-2.73-.59-.13 0-.25.01-.37.02v4.54l.41-.01c.91 0 1.81.13 2.69.43V6.41m0 5.69c-.81-.36-1.72-.54-2.71-.54-.13 0-.26.01-.39.02v4.58h.41c.99 0 1.89.12 2.69.37V12.1z"/></svg>

<?xml version="1.0" encoding="UTF-8"?><!DOCTYPE svg PUBLIC "-//W3C//DTD SVG 1.1//EN" "http://www.w3.org/Graphics/SVG/1.1/DTD/svg11.dtd"><svg xmlns="http://www.w3.org/2000/svg" xmlns:xlink="http://www.w3.org/1999/xlink" version="1.1" id="mdi-microsoft-windows-classic" width="24" height="24" viewBox="0 0 24 24"><path d="M2.67,5.3V5.91L1.96,6.21V5.6L2.67,5.3M2.67,11.24V11.86L1.96,12.15V11.56L2.67,11.24M2.67,17.27V17.89L1.96,18.18V17.59L2.67,17.27M2.6,7.29V7.84L2.03,8.1V7.56L2.6,7.29M2.6,9.28V9.82L2.03,10.08V9.54L2.6,9.28M2.6,13.31V13.84L2.03,14.1V13.56L2.6,13.31M2.6,15.33V15.87L2.03,16.13V15.6L2.6,15.33M4.5,5.64V6.36L3.5,6.73V6L4.5,5.64M4.5,11.66V12.37L3.5,12.74V12.03L4.5,11.66M4.5,17.7V18.41L3.5,18.81V18.1L4.5,17.7M4.43,7.72V8.38L3.64,8.68V8L4.43,7.72M4.43,9.73V10.37L3.65,10.67V10L4.43,9.73M4.43,13.74V14.38L3.65,14.69V14.03L4.43,13.74M4.43,15.76V16.41L3.65,16.72V16.06L4.43,15.76M6.31,6.09V6.94L5.05,7.43V6.59L6.31,6.09M6.31,12.11V12.96L5.05,13.45V12.61L6.31,12.11M6.31,18.08V18.93L5.05,19.43V18.58L6.31,18.08M6.25,8.18V8.94L5.19,9.34V8.61L6.25,8.18M6.25,10.18V10.93L5.19,11.35V10.6L6.25,10.18M6.25,14.19V14.94L5.19,15.37V14.62L6.25,14.19M6.25,16.14V16.9L5.19,17.32V16.57L6.25,16.14M8.29,6.04V7.16L6.72,7.78V6.67L8.29,6.04M8.29,12.06V13.19L6.72,13.8V12.68L8.29,12.06M8.29,18.03V19.15L6.72,19.77V18.66L8.29,18.03M8.2,8.13V9.16L6.89,9.69V8.66L8.2,8.13M8.2,10.13V11.15L6.89,11.68V10.65L8.2,10.13M8.2,14.15V15.18L6.89,15.7V14.67L8.2,14.15M8.2,16.1V17.12L6.89,17.64V16.63L8.2,16.1M10.34,5.85V7.32L8.61,8V6.56L10.34,5.85M10.34,11.87V13.33L8.61,14.03V12.56L10.34,11.87M10.34,17.84V19.3L8.61,20V18.54L10.34,17.84M10.26,8.05V9.28L8.78,9.87V8.64L10.26,8.05M10.26,9.97V11.2L8.78,11.78V10.56L10.26,9.97M10.26,14.06V15.31L8.78,15.88V14.65L10.26,14.06M10.26,16V17.25L8.78,17.84V16.6L10.26,16M12.45,5.12V7.12L10.59,7.89V6C11.23,5.65 11.85,5.35 12.45,5.12M12.45,7.33V9.06L10.59,9.84V8.1L12.45,7.33M12.45,9.28V11.04L10.59,11.82V10.06L12.45,9.28M12.45,11.25V13L10.59,13.77V12L12.45,11.25M12.45,13.21V15L10.59,15.78V14L12.45,13.21M12.45,15.21V16.96L10.59,17.76V16L12.45,15.21M12.45,17.17V19.04C11.72,19.32 11.1,19.59 10.59,19.84V17.96L12.45,17.17M22.04,5.18V19.23C20.85,18.44 19.37,18.05 17.59,18.05C16.12,18.05 14.47,18.35 12.65,18.96V17.06C13.62,16.69 14.68,16.42 15.84,16.26V11.69C14.86,11.81 13.8,12.15 12.65,12.71V11.4C13.64,10.94 14.71,10.63 15.84,10.46V6C14.82,6.18 13.76,6.53 12.65,7V5.03C14.27,4.34 15.86,4 17.41,4C19.09,4 20.63,4.39 22.04,5.18M20.15,6.41C19.39,6 18.5,5.82 17.42,5.82C17.29,5.82 17.17,5.83 17.05,5.84V10.38L17.46,10.37C18.37,10.37 19.27,10.5 20.15,10.8V6.41M20.15,12.1C19.34,11.74 18.43,11.56 17.44,11.56C17.31,11.56 17.18,11.57 17.05,11.58V16.16H17.46C18.45,16.16 19.35,16.28 20.15,16.53V12.1H20.15Z" /></svg>
